src/assets/img/providers/mplay.svg

<svg width="80" height="30" viewBox="0 0 80 30" fill="none" xmlns="http://www.w3.org/2000/svg">
<g clip-path="url(#clip0_4132_7999)">
<path fill-rule="evenodd" clip-rule="evenodd" d="M25.6226 9.35761C23.3132 8.03685 20.9877 6.67931 18.6462 5.28497C18.5651 5.22836 18.4481 5.15667 18.2953 5.06987C16.1368 3.83969 13.9811 2.60667 11.8283 1.37082C10.5207 0.617987 9.50187 0.186855 8.77169 0.0774215C6.69055 -0.233899 5.01225 0.71044 3.73678 2.91044L3.73678 2.91052C2.1481 3.40864 1.26602 4.41524 1.09055 5.93034C1.00753 6.65486 1.19527 7.77562 1.65376 9.2926C2.24432 11.2473 2.84338 13.1992 3.45093 15.1483L3.45093 15.1482C3.50376 15.3557 3.53017 15.5661 3.53017 15.7793C3.52829 17.9567 3.52923 20.1152 3.533 22.2548C3.53489 23.4152 3.62829 24.2755 3.81319 24.8359C4.43867 26.7208 5.65282 28.1076 7.79527 27.9095C8.61414 27.7699 9.20753 27.5935 9.57546 27.3803C13.2641 25.2274 16.9698 23.0652 20.6924 20.8935L21.8556 20.1831C21.8651 18.534 21.8679 16.8878 21.8641 15.2444C21.8585 13.7189 21.6689 12.3689 20.0075 12.0944C18.4368 11.834 17.234 12.8925 17.2311 14.5199C17.2255 17.135 17.2255 19.5765 17.2311 21.8444C17.2311 21.9501 17.1783 22.0029 17.0726 22.0029H13.8972C13.7915 22.0029 13.7387 21.9501 13.7387 21.8444C13.7443 19.501 13.7453 17.0548 13.7415 14.5057C13.7358 12.2784 11.3924 11.2482 9.79055 12.6887C9.08446 13.3242 9.09364 14.414 9.10135 15.3284L9.10135 15.3287L9.10135 15.3289C9.10198 15.4039 9.1026 15.4778 9.10282 15.5501C9.11225 17.7123 9.11414 19.8076 9.10848 21.8359C9.10848 21.9472 9.05282 22.0029 8.9415 22.0029H5.75187C5.65942 22.0029 5.61319 21.9557 5.61319 21.8614V9.33497C5.61319 9.23685 5.66225 9.1878 5.76036 9.1878H8.64433C8.77263 9.1878 8.83489 9.25195 8.83112 9.38025L8.81131 10.0397C8.80565 10.2152 8.86791 10.2444 8.9981 10.1274C10.9085 8.40384 14.4519 8.36987 16.1302 10.5746C16.2 10.6652 16.2755 10.6699 16.3566 10.5887C18.8075 8.1378 23.4773 8.12365 24.9632 11.7435C25.2066 12.3359 25.3358 13.3736 25.3509 14.8567C25.3623 15.9416 25.3623 17.0321 25.3509 18.1284C26.8453 17.4416 27.833 16.3284 28.3141 14.7887C28.5481 14.0378 28.5924 13.367 28.4472 12.7765C28.4056 12.6067 28.249 12.2246 27.9773 11.6303C27.266 10.6057 26.4811 9.84818 25.6226 9.35761ZM23.933 6.48212C22.2217 6.05005 20.4594 5.65099 18.6462 5.28495C20.9877 6.67929 23.3132 8.03684 25.6226 9.3576C26.4811 9.84816 27.266 10.6057 27.9774 11.6302C28.45 8.74344 26.3726 7.09911 23.933 6.48212ZM50.7915 2.90196H47.5707C47.5238 2.90196 47.4858 2.93997 47.4858 2.98686V21.8472C47.4858 21.8941 47.5238 21.9321 47.5707 21.9321H50.7915C50.8384 21.9321 50.8764 21.8941 50.8764 21.8472V2.98686C50.8764 2.93997 50.8384 2.90196 50.7915 2.90196ZM35.4717 26.3048V20.9557C35.4717 20.801 35.5283 20.7765 35.6415 20.8821C36.8528 22.0274 38.4057 22.4472 40.3 22.1416C43.3 21.6576 45.2019 18.867 45.2755 15.8925C45.3858 11.5793 42.1538 8.31325 37.716 9.27269C36.7726 9.47646 35.983 9.96797 35.3472 10.7472C35.2415 10.8755 35.1896 10.8567 35.1915 10.6906V9.57269C35.1915 9.44061 35.1264 9.37458 34.9962 9.37458H32.2707C32.1406 9.37458 32.0755 9.43967 32.0755 9.56986V26.3387C32.0755 26.4463 32.1283 26.5 32.234 26.5H35.2764C35.4066 26.5 35.4717 26.435 35.4717 26.3048ZM39.8605 18.8918C39.4663 19.069 39.0436 19.1606 38.6165 19.1614C38.1895 19.1621 37.7664 19.072 37.3716 18.8962C36.9768 18.7204 36.6178 18.4623 36.3153 18.1367C36.0127 17.8111 35.7725 17.4243 35.6084 16.9984C35.4442 16.5726 35.3593 16.116 35.3585 15.6548C35.3577 15.1936 35.441 14.7367 35.6037 14.3103C35.7663 13.8839 36.0052 13.4963 36.3066 13.1696C36.608 12.8429 36.966 12.5836 37.3603 12.4064C37.7545 12.2292 38.1772 12.1376 38.6042 12.1368C39.0313 12.1361 39.4543 12.2262 39.8491 12.402C40.244 12.5778 40.6029 12.8359 40.9055 13.1615C41.208 13.4872 41.4482 13.8739 41.6124 14.2998C41.7765 14.7256 41.8615 15.1822 41.8623 15.6434C41.8631 16.1047 41.7798 16.5615 41.6171 16.9879C41.4544 17.4144 41.2155 17.802 40.9142 18.1286C40.6128 18.4553 40.2547 18.7146 39.8605 18.8918ZM61.4585 20.8792C59.7349 22.4415 56.4491 22.8801 54.5642 21.1028C53.183 19.8009 53.1066 17.3726 54.4453 16.0962C55.2264 15.3528 56.2217 14.95 57.4311 14.8877C58.6292 14.8254 59.8641 14.8188 61.1358 14.8679C61.266 14.8717 61.3368 14.8094 61.3481 14.6811C61.6849 11.2254 57.5274 11.5651 56.0811 13.4443C55.8717 13.716 55.6566 13.7207 55.4358 13.4585L54.117 11.8849C53.9887 11.7301 53.9943 11.5801 54.134 11.4349C55.883 9.6009 57.9726 8.84524 60.4028 9.16788C62.1726 9.40185 63.433 10.249 64.184 11.7094C64.616 12.5471 64.8142 13.8811 64.7783 15.7113C64.7387 17.8226 64.7377 19.8415 64.7755 21.7679C64.7774 21.8792 64.7226 21.9349 64.6113 21.9349H61.7868C61.747 21.9349 61.7089 21.9194 61.6807 21.8918C61.6526 21.8642 61.6368 21.8267 61.6368 21.7877L61.6396 20.9585C61.6396 20.7962 61.5792 20.7698 61.4585 20.8792ZM58.5802 17.0726C58.0274 17.0764 57.5953 17.2103 57.284 17.4745C56.4491 18.1764 57.0717 19.5688 58.1075 19.6905C60.0283 19.9169 61.1245 19.1094 61.3962 17.2679C61.3999 17.2434 61.3982 17.2184 61.3914 17.1947C61.3845 17.1709 61.3727 17.1488 61.3566 17.1301C61.3404 17.1113 61.3205 17.0962 61.298 17.0858C61.2756 17.0754 61.2512 17.0699 61.2264 17.0698C60.3906 17.0641 59.5085 17.0651 58.5802 17.0726ZM75.5557 9.47653L72.3943 17.4746C72.3892 17.4875 72.3803 17.4986 72.3687 17.5062C72.3572 17.5139 72.3435 17.5179 72.3297 17.5175C72.3158 17.5172 72.3024 17.5127 72.2912 17.5045C72.2799 17.4963 72.2715 17.4849 72.267 17.4718L69.3264 9.54162C69.2849 9.4303 69.2057 9.37464 69.0887 9.37464H65.8764C65.7349 9.37464 65.6915 9.43974 65.7462 9.56992L70.4274 21.0775C70.4473 21.1284 70.4473 21.185 70.4274 21.236C70.1443 21.9775 69.7849 22.8577 69.117 23.3077C68.3414 23.8296 67.4652 23.7604 66.5591 23.6889L66.5589 23.6889C66.4235 23.6782 66.2874 23.6674 66.1509 23.6586C66.0679 23.6548 66.0264 23.6935 66.0264 23.7746L66.0293 26.2737C66.0293 26.4379 66.1094 26.5369 66.2698 26.5709C69.4057 27.2643 71.7151 26.3643 73.0368 23.3529C75.0594 18.7473 77.0887 14.1228 79.1245 9.47936C79.1298 9.46805 79.1321 9.45558 79.1313 9.44313C79.1304 9.43067 79.1264 9.41864 79.1196 9.40817C79.1128 9.3977 79.1035 9.38912 79.0924 9.38326C79.0814 9.37739 79.0691 9.37443 79.0566 9.37464H75.7028C75.6709 9.37482 75.6398 9.38464 75.6135 9.40282C75.5872 9.421 75.5671 9.44669 75.5557 9.47653ZM13.7755 28.47C15.4339 26.7153 17.7396 24.1898 20.6924 20.8936C16.9698 23.0653 13.2641 25.2275 9.57545 27.3803C9.20753 27.5936 8.61413 27.77 7.79526 27.9096C8.87923 29.4577 10.5717 30.3917 12.4056 29.4492C12.9811 29.153 13.4377 28.8266 13.7755 28.47Z" fill="#919EAB"/>
</g>
<defs>
<clipPath id="clip0_4132_7999">
<rect width="78.3962" height="30" fill="white" transform="translate(0.80188 0.000976562)"/>
</clipPath>
</defs>
</svg>

<svg width="80" height="30" fill="none" xmlns="http://www.w3.org/2000/svg"><g clip-path="url(#a)"><path fill-rule="evenodd" clip-rule="evenodd" d="M25.623 9.358a459.274 459.274 0 0 1-6.977-4.073 4.72 4.72 0 0 0-.35-.215c-2.16-1.23-4.315-2.463-6.468-3.7C10.521.619 9.502.188 8.772.078 6.69-.233 5.012.71 3.737 2.91 2.148 3.41 1.266 4.416 1.09 5.93c-.083.725.104 1.846.563 3.363.59 1.954 1.19 3.906 1.797 5.855.053.208.08.418.08.631-.003 2.178-.002 4.336.002 6.476.002 1.16.095 2.02.28 2.58.626 1.886 1.84 3.273 3.982 3.075.82-.14 1.413-.317 1.78-.53l11.117-6.486 1.164-.71c.01-1.65.012-3.296.008-4.94-.006-1.525-.195-2.875-1.857-3.15-1.57-.26-2.773.799-2.776 2.426a1594.66 1594.66 0 0 0 0 7.324c0 .106-.053.159-.158.159h-3.176c-.106 0-.158-.053-.158-.159.005-2.343.006-4.79.002-7.338-.005-2.228-2.349-3.258-3.95-1.817-.707.635-.697 1.725-.69 2.64l.002.221a879.6 879.6 0 0 1 .005 6.286c0 .111-.055.167-.167.167h-3.19c-.092 0-.138-.047-.138-.142V9.335c0-.098.05-.147.147-.147h2.884c.129 0 .19.064.187.192l-.02.66c-.005.175.057.204.187.087 1.91-1.723 5.454-1.757 7.132.448.07.09.146.095.227.014 2.45-2.451 7.12-2.465 8.606 1.154.244.593.373 1.63.388 3.114.011 1.085.011 2.175 0 3.271 1.494-.686 2.482-1.8 2.963-3.34.234-.75.278-1.421.133-2.011-.041-.17-.198-.552-.47-1.147-.711-1.024-1.496-1.782-2.354-2.272Zm-1.69-2.876a112.705 112.705 0 0 0-5.287-1.197 459.275 459.275 0 0 0 6.977 4.073c.858.49 1.643 1.248 2.354 2.272.473-2.887-1.604-4.53-4.044-5.148Zm26.858-3.58h-3.22a.085.085 0 0 0-.085.085v18.86c0 .047.038.085.085.085h3.22a.085.085 0 0 0 .085-.085V2.987a.085.085 0 0 0-.084-.085Zm-15.32 23.403v-5.35c0-.154.057-.178.17-.073 1.212 1.145 2.765 1.565 4.659 1.26 3-.484 4.902-3.275 4.976-6.25.11-4.313-3.122-7.579-7.56-6.62-.943.204-1.733.696-2.369 1.475-.105.129-.157.11-.156-.056V9.573c0-.132-.065-.198-.195-.198h-2.725c-.13 0-.196.065-.196.195v16.769c0 .107.053.161.159.161h3.042c.13 0 .196-.065.196-.195Zm4.39-7.413a3.045 3.045 0 0 1-1.244.27c-.427 0-.85-.09-1.245-.266a3.247 3.247 0 0 1-1.057-.76 3.54 3.54 0 0 1-.707-1.138 3.757 3.757 0 0 1-.004-2.688c.162-.426.401-.814.703-1.14.301-.327.659-.586 1.053-.764a3.045 3.045 0 0 1 1.244-.27c.427 0 .85.09 1.245.266.395.176.754.434 1.057.76.302.325.542.712.706 1.138a3.759 3.759 0 0 1 .005 2.688 3.544 3.544 0 0 1-.703 1.14c-.301.327-.66.587-1.053.764Zm21.598 1.987c-1.724 1.563-5.01 2.001-6.895.224-1.381-1.302-1.457-3.73-.119-5.007.781-.743 1.777-1.146 2.986-1.208a40.937 40.937 0 0 1 3.705-.02c.13.004.2-.059.212-.187.337-3.456-3.82-3.116-5.267-1.237-.21.272-.424.277-.645.014l-1.319-1.573c-.128-.155-.123-.305.017-.45 1.749-1.834 3.839-2.59 6.269-2.267 1.77.234 3.03 1.081 3.781 2.541.432.838.63 2.172.594 4.002-.04 2.112-.04 4.13-.003 6.057.002.111-.052.167-.164.167h-2.824a.152.152 0 0 1-.106-.043.146.146 0 0 1-.044-.104l.003-.83c0-.162-.06-.188-.181-.079Zm-2.879-3.806c-.553.003-.985.137-1.296.401-.835.702-.212 2.095.824 2.216 1.92.227 3.017-.58 3.288-2.422a.172.172 0 0 0-.17-.198c-.835-.006-1.718-.005-2.646.003Zm16.976-7.596-3.162 7.998a.067.067 0 0 1-.064.042.067.067 0 0 1-.063-.045l-2.94-7.93c-.042-.112-.121-.167-.238-.167h-3.213c-.141 0-.184.065-.13.195l4.681 11.508c.02.05.02.107 0 .158-.283.741-.642 1.622-1.31 2.072-.776.522-1.652.452-2.558.38l-.408-.03c-.083-.003-.125.035-.125.117l.003 2.499c0 .164.08.263.24.297 3.137.693 5.446-.207 6.768-3.218 2.022-4.606 4.052-9.23 6.087-13.874a.074.074 0 0 0-.004-.07.073.073 0 0 0-.063-.034h-3.354a.159.159 0 0 0-.147.102ZM13.776 28.47c1.658-1.755 3.964-4.28 6.916-7.576L9.575 27.38c-.367.214-.96.39-1.78.53 1.084 1.548 2.777 2.482 4.61 1.54.576-.297 1.033-.623 1.37-.98Z" fill="#919EAB"/></g><defs><clipPath id="a"><path fill="#fff" transform="translate(.802 .001)" d="M0 0h78.396v30H0z"/></clipPath></defs></svg>
